Yaru++/apps/16/com.github.lachhebo.Gabtag.svg

<svg height="16" width="16" xmlns="http://www.w3.org/2000/svg"><g fill="#808080"><path d="m8 0a8 8 0 0 0 -8 8 8 8 0 0 0 8 8 8 8 0 0 0 8-8 8 8 0 0 0 -.828125-3.5253906l-.757813.7441406a7 7 0 0 1 .585938 2.78125 7 7 0 0 1 -7 7 7 7 0 0 1 -4.7226562-1.845703l-.8691407.275391.2792969-.884766a7 7 0 0 1 -1.6875-4.544922 7 7 0 0 1 7-7 7 7 0 0 1 2.556641.4902344l.75-.7636719a8 8 0 0 0 -3.306641-.7265625z"/><path d="m12.797321.27966099-.353.36-6.9689985 7.09500031-.03.045c-.061.099-.27.45-.583 1.088-.314.638-.7 1.5099997-1.012 2.4919997l-.291.92.92-.291c.854536-.275281 1.687485-.613541 2.491999-1.012.638-.313.987-.52 1.088-.584l.045-.029 7.4549995-7.322zm-6.3469995 7.89000031 1.218 1.22-.177.175c.007-.005-.379.227-.961.5139997-.214.105-.536.222-.834.338l-.273999-.274c.115999-.2979997.232999-.6199997.337999-.8339997.287-.582.518-.966.514-.96z"/></g></svg>

<?xml version="1.0" encoding="UTF-8" standalone="no"?>
<svg
   xmlns:dc="http://purl.org/dc/elements/1.1/"
   xmlns:cc="http://creativecommons.org/ns#"
   xmlns:rdf="http://www.w3.org/1999/02/22-rdf-syntax-ns#"
   xmlns:svg="http://www.w3.org/2000/svg"
   xmlns="http://www.w3.org/2000/svg"
   xmlns:sodipodi="http://sodipodi.sourceforge.net/DTD/sodipodi-0.dtd"
   xmlns:inkscape="http://www.inkscape.org/namespaces/inkscape"
   height="16"
   width="16"
   version="1.1"
   id="svg8"
   sodipodi:docname="com.github.lachhebo.Gabtag-symbolic.svg"
   inkscape:version="0.92.5 (2060ec1f9f, 2020-04-08)">
  <metadata
     id="metadata14">
    <rdf:RDF>
      <cc:Work
         rdf:about="">
        <dc:format>image/svg+xml</dc:format>
        <dc:type
           rdf:resource="http://purl.org/dc/dcmitype/StillImage" />
        <dc:title></dc:title>
      </cc:Work>
    </rdf:RDF>
  </metadata>
  <defs
     id="defs12" />
  <sodipodi:namedview
     pagecolor="#ffffff"
     bordercolor="#666666"
     borderopacity="1"
     objecttolerance="10"
     gridtolerance="10"
     guidetolerance="10"
     inkscape:pageopacity="0"
     inkscape:pageshadow="2"
     inkscape:window-width="1920"
     inkscape:window-height="1016"
     id="namedview10"
     showgrid="false"
     inkscape:zoom="14.75"
     inkscape:cx="8"
     inkscape:cy="8"
     inkscape:window-x="0"
     inkscape:window-y="27"
     inkscape:window-maximized="1"
     inkscape:current-layer="g6" />
  <g
     fill="#808080"
     id="g6">
    <path
       d="M 8 0 A 8 8 0 0 0 0 8 A 8 8 0 0 0 8 16 A 8 8 0 0 0 16 8 A 8 8 0 0 0 15.171875 4.4746094 L 14.414062 5.21875 A 7 7 0 0 1 15 8 A 7 7 0 0 1 8 15 A 7 7 0 0 1 3.2773438 13.154297 L 2.4082031 13.429688 L 2.6875 12.544922 A 7 7 0 0 1 1 8 A 7 7 0 0 1 8 1 A 7 7 0 0 1 10.556641 1.4902344 L 11.306641 0.7265625 A 8 8 0 0 0 8 0 z "
       id="path4" />
  </g>
  <path
     inkscape:connector-curvature="0"
     d="m 12.797321,0.27966099 -0.353,0.36 -6.9689985,7.09500031 -0.03,0.045 c -0.061,0.099 -0.27,0.45 -0.583,1.088 -0.314,0.638 -0.7,1.5099997 -1.012,2.4919997 l -0.291,0.92 0.92,-0.291 c 0.854536,-0.275281 1.687485,-0.613541 2.491999,-1.012 0.638,-0.313 0.987,-0.52 1.088,-0.584 l 0.045,-0.029 7.4549995,-7.322 z m -6.3469995,7.89000031 1.218,1.22 -0.177,0.175 c 0.007,-0.005 -0.379,0.227 -0.961,0.5139997 -0.214,0.105 -0.536,0.222 -0.834,0.338 l -0.273999,-0.274 c 0.115999,-0.2979997 0.232999,-0.6199997 0.337999,-0.8339997 0.287,-0.582 0.518,-0.966 0.514,-0.96 z"
     id="path4-3"
     sodipodi:nodetypes="cccccccccccccccccccccc"
     style="fill:#808080;fill-opacity:1" />
</svg>
